package/converter/svg/light/m.svg

<svg xmlns="http://www.w3.org/2000/svg" viewBox="0 0 448 512"><!-- Font Awesome Pro 6.0.0-alpha2 by @fontawesome - https://fontawesome.com License - https://fontawesome.com/license (Commercial License) --><path d="M432 480C423.156 480 416 472.844 416 464.001V99.745L237.219 361.039C231.219 369.789 216.781 369.789 210.781 361.039L32 99.745V464.001C32 472.844 24.844 480 16 480S0 472.844 0 464.001V48.029C0 41.03 4.562 34.811 11.281 32.749C18.094 30.593 25.25 33.218 29.219 38.999L224 323.667L418.781 38.999C422.781 33.218 429.938 30.593 436.719 32.749C443.438 34.811 448 41.03 448 48.029V464.001C448 472.844 440.844 480 432 480Z"/></svg>

<svg xmlns="http://www.w3.org/2000/svg" viewBox="0 0 448 512"><!--! Font Awesome Pro 6.6.0 by @fontawesome - https://fontawesome.com License - https://fontawesome.com/license (Commercial License) Copyright 2024 Fonticons, Inc. --><path d="M11.3 32.7c6.7-2.1 14 .5 17.9 6.3L224 323.7 418.8 39c4-5.8 11.2-8.3 17.9-6.3S448 41 448 48l0 416c0 8.8-7.2 16-16 16s-16-7.2-16-16l0-364.3L237.2 361c-3 4.4-7.9 7-13.2 7s-10.2-2.6-13.2-7L32 99.7 32 464c0 8.8-7.2 16-16 16s-16-7.2-16-16L0 48c0-7 4.6-13.2 11.3-15.3z"/></svg>
